X: 3
T:L\'evis Beaulieu (R-144)
R:reel
Z:Transcribed to abc by Debbie Knight
M:C|
K:A
ed|"A"c2AA AcBA | "D"FBAF "A"E3A |"Bm"BABc d2B2 |"E"AAAc efed | 
"A"c2AA AcBA | "D"FBAF "A"E3A |"Bm"BABc "E"dBed |1 "A"c2A2 A2 :|						[2 "A"c2A2 A2ce |]
|:"A"a2ab afed |cAce a2ef | "G"=g2ga ged=c   |B=GBd =g2e^g|
"A"a2ab afed |cAce a2ee | "Bm"efec "E"dBed |1 "A"c2A2 A2ce  :|					   [2 "A"c2A2 A4|]
%%text 01/28/02 

#include "RightHeader.h"
%%text Set 64 (cont'd)
%%scale .75
$SmallRMargin
$SmallLMargin
